X: 82
T: POLKA: Gallope
T: Ballyoran / Paddy Spillane's
C: C: Trad.; S: Various
C: Set Leaders: Sophie, Anton
Z: Anton Zille ed.; John E Roche at The Session
N: https://thesession.org/members/26966/sets/99417
R: Polka
M: 2/4
L: 1/8
Q: 1/4=140
K: Dmaj
A,|: D2 FD/F/ | AF/A/ dF | AG GE | BA FA |
D2 FD/F/ | AF/A/ dF | AG GE |1 ED DA, :|2 ED D2||
|: AG GE | BA F>G | AG GE | BA FA |
D2 FD/F/ | AF/A/ dF | AG GE | ED D2 :||

